X: 130
T: Home Boys Home
M:6/8
R:jig
L:1/8
Z:added by Alf warnock alf0@rogers.com - www.alfwarnock.info/alfs
K:D
A3| "D"d2d d2e|f2f f2e|d2d d2B|A3 A3|
"A7"e2e e2f|g3 f2e|"D"d2e f2g|a6|
"D"a3 a2a|"G"g3 g2g|"D"f2g a2f|"A7"e3-e zf|
a2a g2f|e2d c2B|A2A B2c|"D"d3z|
%%text Chorus
fe|"D".d3z3|"A".A3z3|"D".d3z3|.d3.d3|
"D"f2e d2f|a6|"G"b3 b2b|"D"a3 f2e|
d3 c2d|"A7"e3 f2g|"D"a3 a2a|"G"g3 g2g|
"D"f2g a2f|"A7"e3-e2f|a2a g2f|e2d c2B|A3 B2c|"D"d6|

